X:439
T: Chase Me Charlie/Cock of the North
M:6/8
K:A
((3e/2f/2g/2)|"A"a2e "D"f2e|"A"a2e "D"f2e|"A"c2c cBA|"Bm"BcB "E7"B2e|
"A"a2e "D"f2e|"A"a2e "D"f2e|"A"c2c "E7"BcB|"A"A3 A2:|
B|"A"c2c cBA|"A"cde "D"f2e|"A"c2c cBA|"B7"BcB "E7"B2A|
"A"c2c cBA|"A"cde "D"f2e|"A"c2c "E7"BcB|"A"A3 A2:|

%%newpage

